public/images/att.svg

<svg width="95" height="39" viewBox="0 0 95 39" fill="none" xmlns="http://www.w3.org/2000/svg">
<path fill-rule="evenodd" clip-rule="evenodd" d="M87.366 26.6631C87.1135 26.6631 86.9395 26.4923 86.9395 26.2466V14.0421H82.6893C82.4366 14.0421 82.2624 13.8719 82.2624 13.6259V11.9424C82.2624 11.6959 82.4366 11.5254 82.6893 11.5254H94.0026C94.2548 11.5254 94.4286 11.6961 94.4286 11.9424V13.6259C94.4286 13.8717 94.2548 14.0421 94.0026 14.0421H89.7526V26.2464C89.7526 26.4923 89.5777 26.6631 89.3261 26.6631H87.366ZM54.8093 20.57L52.5783 14.3262L50.3273 20.57H54.8093ZM59.7576 26.1701C59.8552 26.4166 59.6996 26.6631 59.4278 26.6631H57.4101C57.119 26.6631 56.9441 26.5311 56.8467 26.2651L55.7023 23.0494H49.4354L48.289 26.2651C48.1928 26.5311 48.0174 26.6631 47.7269 26.6631H45.8258C45.5733 26.6631 45.3984 26.4166 45.4955 26.1701L50.754 11.9046C50.8512 11.6388 51.0259 11.5261 51.3163 11.5261H53.9165C54.2079 11.5261 54.4019 11.6391 54.499 11.9046L59.7576 26.1701ZM74.8304 24.6193C76.0717 24.6193 76.9065 24.0337 77.5859 23.0303L74.4428 19.7374C73.2393 20.4002 72.4627 21.0617 72.4627 22.3866C72.4629 23.6924 73.5491 24.6193 74.8304 24.6193ZM75.7034 13.5311C74.6948 13.5311 74.1128 14.156 74.1128 14.9885C74.1128 15.6318 74.4612 16.1994 75.2571 17.0321C76.6347 16.256 77.2172 15.7831 77.2172 14.9508C77.2172 14.1744 76.7129 13.5311 75.7034 13.5311ZM84.3002 26.1333C84.5523 26.3984 84.3974 26.6631 84.086 26.6631H81.6216C81.292 26.6631 81.1173 26.587 80.904 26.341L79.4293 24.7522C78.4398 26.0389 77.0609 27.0035 74.7717 27.0035C71.9389 27.0035 69.7068 25.3387 69.7068 22.482C69.7068 20.2864 70.9105 19.113 72.7348 18.1292C71.8415 17.1264 71.4348 16.0669 71.4348 15.1401C71.4348 12.7931 73.1228 11.1851 75.6643 11.1851C78.2645 11.1851 79.856 12.6804 79.856 14.8938C79.856 16.7861 78.4592 17.8447 76.9841 18.64L79.1577 20.9303L80.3799 18.8481C80.535 18.6025 80.7097 18.5075 81.0197 18.5075H82.9016C83.2125 18.5075 83.3872 18.7163 83.1936 19.0378L81.02 22.6702L84.3002 26.1333ZM64.9352 26.6631C65.1875 26.6631 65.363 26.4923 65.363 26.2466V14.0421H69.6119C69.8641 14.0421 70.0386 13.8719 70.0386 13.6259V11.9424C70.0386 11.6959 69.8641 11.5254 69.6119 11.5254H58.2987C58.0462 11.5254 57.8719 11.6961 57.8719 11.9424V13.6259C57.8719 13.8717 58.0462 14.0421 58.2987 14.0421H62.5477V26.2464C62.5477 26.4923 62.7229 26.6631 62.9749 26.6631H64.9352Z" fill="#343434"/>
<path fill-rule="evenodd" clip-rule="evenodd" d="M7.50775 34.0251C10.7986 36.51 14.9292 38.0031 19.4105 38.0031C24.3147 38.0031 28.7854 36.2271 32.1977 33.3114C32.239 33.2757 32.2186 33.2522 32.1779 33.2757C30.6468 34.2734 26.2828 36.4508 19.4107 36.4508C13.4385 36.4508 9.66431 35.1509 7.53293 33.9905C7.49223 33.9707 7.47717 34.0005 7.50775 34.0251ZM20.7282 34.9925C25.5047 34.9925 30.7536 33.7224 33.8929 31.2082C34.752 30.523 35.5703 29.6113 36.3031 28.3859C36.7251 27.6808 37.1376 26.8432 37.4738 26.0199C37.4886 25.9796 37.4632 25.96 37.4324 26.0052C34.513 30.196 26.0594 32.8101 17.3303 32.8101C11.1603 32.8101 4.52156 30.8853 1.92252 27.2104C1.89689 27.1764 1.87126 27.1909 1.887 27.2299C4.30819 32.2501 11.6538 34.9925 20.7282 34.9925ZM15.5092 26.6643C5.57466 26.6643 0.890326 22.1509 0.0406942 19.0708C0.0301272 19.026 0 19.0359 0 19.076C0 20.113 0.10657 21.451 0.289581 22.3393C0.376815 22.7716 0.737668 23.4501 1.26647 23.991C3.67192 26.4371 9.66948 29.8644 20.0562 29.8644C34.2074 29.8644 37.4432 25.2659 38.104 23.7537C38.5763 22.6722 38.8212 20.7179 38.8212 19.076C38.8212 18.6788 38.811 18.3615 38.7955 18.0498C38.7955 17.9994 38.7656 17.9952 38.7553 18.0443C38.048 21.7447 25.9573 26.6643 15.5092 26.6643ZM1.87126 10.9561C1.30221 12.0582 0.671118 13.9174 0.483609 14.8798C0.401322 15.2919 0.436395 15.4899 0.584558 15.7976C1.77526 18.2621 7.798 22.2051 21.847 22.2051C30.4179 22.2051 37.076 20.1511 38.1548 16.4027C38.3533 15.7128 38.3641 14.9842 38.1089 14.0025C37.8238 12.9055 37.2898 11.6264 36.8379 10.7281C36.8229 10.6989 36.7966 10.703 36.802 10.7377C36.9699 15.654 22.9153 18.8227 15.824 18.8227C8.14289 18.8227 1.73456 15.8373 1.73456 12.0677C1.73456 11.7053 1.81146 11.3432 1.90746 10.9662C1.91713 10.9318 1.88677 10.9259 1.87126 10.9561ZM32.2291 4.92001C32.3108 5.04459 32.3515 5.17772 32.3515 5.3569C32.3515 7.45974 25.7534 11.1801 15.2504 11.1801C7.53293 11.1801 6.08817 8.38724 6.08817 6.61119C6.08817 5.97648 6.33773 5.32685 6.88744 4.66714C6.91757 4.62788 6.89194 4.61275 6.85731 4.64192C5.8548 5.47073 4.93367 6.40328 4.12563 7.41017C3.73937 7.8861 3.4997 8.30785 3.4997 8.56073C3.4997 12.2411 12.9605 14.9098 21.8065 14.9098C31.2323 14.9098 35.4388 11.9082 35.4388 9.27045C35.4388 8.32759 35.0627 7.77732 34.1002 6.71033C33.4756 6.0164 32.8848 5.45121 32.2593 4.89479C32.2291 4.87045 32.208 4.89041 32.2291 4.92001ZM29.3394 2.81739C26.4306 1.11657 23.0525 0.148926 19.4107 0.148926C15.7435 0.148926 12.2636 1.15034 9.34416 2.89635C8.46867 3.42206 7.97562 3.84337 7.97562 4.38487C7.97562 5.9813 11.8004 7.69792 18.586 7.69792C25.3012 7.69792 30.5096 5.81769 30.5096 4.00786C30.5096 3.5758 30.1227 3.27358 29.3394 2.81739Z" fill="#343434"/>
</svg>

<svg width="95" height="39" fill="none" xmlns="http://www.w3.org/2000/svg"><path fill-rule="evenodd" clip-rule="evenodd" d="M87.366 26.663c-.252 0-.427-.17-.427-.416V14.042h-4.25c-.252 0-.427-.17-.427-.416v-1.684c0-.246.175-.417.427-.417h11.314c.252 0 .426.171.426.417v1.684c0 .246-.174.416-.426.416h-4.25v12.204c0 .246-.175.417-.427.417h-1.96ZM54.809 20.57l-2.23-6.244-2.252 6.244h4.482Zm4.949 5.6c.097.247-.058.493-.33.493H57.41c-.291 0-.466-.132-.563-.398l-1.145-3.216h-6.267l-1.146 3.216c-.096.266-.272.398-.562.398h-1.901a.355.355 0 0 1-.33-.493l5.258-14.265c.097-.266.272-.379.562-.379h2.6c.292 0 .486.113.583.379l5.259 14.265Zm15.072-1.55c1.242 0 2.076-.586 2.756-1.59l-3.143-3.293c-1.204.663-1.98 1.325-1.98 2.65 0 1.305 1.086 2.232 2.367 2.232Zm.873-11.089c-1.008 0-1.59.625-1.59 1.457 0 .644.348 1.211 1.144 2.044 1.378-.776 1.96-1.249 1.96-2.081 0-.777-.504-1.42-1.514-1.42ZM84.3 26.133c.252.265.097.53-.214.53h-2.464c-.33 0-.505-.076-.718-.322l-1.475-1.589c-.99 1.287-2.368 2.252-4.657 2.252-2.833 0-5.065-1.665-5.065-4.522 0-2.196 1.204-3.369 3.028-4.353-.894-1.003-1.3-2.062-1.3-2.989 0-2.347 1.688-3.955 4.23-3.955 2.6 0 4.191 1.495 4.191 3.709 0 1.892-1.397 2.95-2.872 3.746l2.174 2.29 1.222-2.082c.155-.245.33-.34.64-.34h1.882c.31 0 .485.208.292.53L81.02 22.67l3.28 3.463Zm-19.365.53c.252 0 .428-.17.428-.416V14.042h4.249c.252 0 .427-.17.427-.416v-1.684c0-.246-.175-.417-.427-.417H58.299c-.253 0-.427.171-.427.417v1.684c0 .246.174.416.427.416h4.249v12.204c0 .246.175.417.427.417h1.96ZM7.508 34.025a19.707 19.707 0 0 0 11.902 3.978c4.905 0 9.375-1.776 12.788-4.692.041-.035.02-.059-.02-.035-1.531.997-5.895 3.175-12.767 3.175-5.973 0-9.747-1.3-11.878-2.46-.04-.02-.056.01-.025.034Zm13.22.968c4.777 0 10.026-1.27 13.165-3.785.859-.685 1.677-1.597 2.41-2.822a17.98 17.98 0 0 0 1.17-2.366c.016-.04-.01-.06-.04-.015-2.92 4.191-11.374 6.805-20.103 6.805-6.17 0-12.808-1.925-15.407-5.6-.026-.034-.052-.02-.036.02 2.421 5.02 9.767 7.762 18.841 7.762Zm-5.219-8.329C5.575 26.664.89 22.151.041 19.071c-.01-.045-.041-.035-.041.005 0 1.037.107 2.375.29 3.263.087.433.448 1.111.976 1.652 2.406 2.446 8.403 5.873 18.79 5.873 14.151 0 17.387-4.598 18.048-6.11.472-1.082.717-3.036.717-4.678 0-.397-.01-.715-.026-1.026 0-.05-.03-.055-.04-.006-.707 3.7-12.798 8.62-23.246 8.62ZM1.871 10.956c-.569 1.102-1.2 2.961-1.387 3.924-.083.412-.048.61.1.918 1.191 2.464 7.214 6.407 21.263 6.407 8.57 0 15.229-2.054 16.308-5.802.198-.69.21-1.419-.046-2.4-.285-1.098-.82-2.377-1.271-3.275-.015-.03-.041-.025-.036.01.168 4.916-13.887 8.085-20.978 8.085-7.681 0-14.09-2.986-14.09-6.755 0-.363.077-.725.173-1.102.01-.034-.02-.04-.036-.01ZM32.23 4.92a.75.75 0 0 1 .123.437c0 2.103-6.599 5.823-17.102 5.823-7.717 0-9.162-2.793-9.162-4.569 0-.635.25-1.284.8-1.944.03-.04.004-.054-.03-.025A19.183 19.183 0 0 0 4.125 7.41c-.387.476-.626.898-.626 1.15 0 3.681 9.46 6.35 18.306 6.35 9.426 0 13.633-3.002 13.633-5.64 0-.942-.376-1.493-1.339-2.56a22.615 22.615 0 0 0-1.84-1.815c-.03-.025-.052-.005-.03.025Zm-2.89-2.103C26.431 1.117 23.052.15 19.411.15c-3.668 0-7.147 1.001-10.067 2.747-.875.526-1.368.947-1.368 1.489 0 1.596 3.824 3.313 10.61 3.313 6.715 0 11.924-1.88 11.924-3.69 0-.432-.387-.734-1.17-1.19Z" fill="#fff"/></svg>
